X:1
T:Harbour Grace
M:2/4
L:1/8
K:C
 A| Ad d e/2e/2| d/2d/2 cA G| A d/2d/2 de|d-c A| B/2B/2| cd cA| GF C C/2C/2|\
 DA GE| D2 D2-| D3|
